img/wifiguard/userNote.svg

<svg xmlns="http://www.w3.org/2000/svg" height="24" viewBox="0 0 24 24" width="24"><path d="M0 0h24v24H0z" fill="none"/><path d="M14,2h-8c-1,0 -2,1 -2,2v16c0,1 1,2 2,2h12c1,0 2,-1 2,-2v-12zM6,6.5h5v1.5h-5zM6,10.5h5v0.5h7v1h-12zM6,14.5h12v1.5h-12zM6,18.5h8v1.5h-8zM13,9v-5.5l5.5,5.5z"/></svg>

<svg xmlns="http://www.w3.org/2000/svg" height="24" viewBox="0 0 24 24" width="24"><path d="M0 0h24v24H0z" fill="none"/><path d="M14 2H6C5 2 4 3 4 4v16c0 1 1 2 2 2h12c1 0 2-1 2-2V8zM6 6.5h5V8H6zm0 4h5v.5h7v1H6zm0 4h12V16H6zm0 4h8V20H6zM13 9V3.5L18.5 9z"/></svg>
